X: 171
T: Nuo en ji ya
L: 1/8
M: 4/4
K: C
A2d c A> GE2 [I:setbarnb 1]| 
d ge6 | 
d> e a g e> d c A | 
c ed6 | 
c> de2e gA2 | 
G Ac6 | 
G> A d c A GE2 | 
G cA6 | 
A2d c A> GE2 | 
d ge6 | 
d> e a g e> d c A | 
c ed6 | 
c> de2e gA2 | 
G Ac6 | 
G> A d c A GE2 | 
G cA6 |]

@@@ Tune index: 8839
